!!!COM: Bach, Johann Sebastian
!!!OPR: Joh. Seb. Bachs vierstimmige Choralgesänge
!!!XEN: Four-part Chorales
!!!OTL: 129. Mit Fried' und Freud' ich fahr' dahin
!!!SCT: BWV 382
!!!SCA: Thematisch-systematisches Verzeichnis der musikalischen Werke Johann Sebastian Bach: Bach-Werke-Verzeichnis (Schmieder)
!!!YOR: Bach Gesellschaft Edition xxxix
!!!ENC: Steven Rasmussen
!!!CDT: 1685/3//-1750/7/28/
!!!OCY: Deutschland
!!!YEC: Copyright (c) 1994, 2000 Center for Computer Assisted Research in the Humanities
!!!YEM: Rights to all derivative editions reserved
!!!YEN: United States of America
**kern	**silbe	**kern	**silbe	**kern	**silbe	**kern	**silbe
*I:[BASSO]	*I:[BASSO]	*I:[TENORE]	*I:[TENORE]	*I:[ALTO]	*I:[ALTO]	*I:[SOPRANO]	*I:[SOPRANO]
*clefF4	*	*clefGv2	*	*clefG2	*	*clefG2	*
*k[]	*	*k[]	*	*k[]	*	*k[]	*
*a:	*	*a:	*	*a:	*	*a:	*
*M4/4	*	*M4/4	*	*M4/4	*	*M4/4	*
8DL	.	8FL	.	4A	.	4d	Mit
8EJ	.	8GJ	.	.	.	.	.
=1	=1	=1	=1	=1	=1	=1	=1
8FL	.	4A	.	4d	.	4a	Fried'
8EJ	.	.	.	.	.	.	.
8FL	.	8dL	.	4f	.	4a	und
8DJ	.	8cJ	.	.	.	.	.
8EL	.	4B	.	4e	.	4g	Freud'
8DJ	.	.	.	.	.	.	.
8CL	.	8AL	.	8f#L	.	4dd	ich
8BBJ	.	8BJ	.	8g#J	.	.	.
=2	=2	=2	=2	=2	=2	=2	=2
8AAL	.	8cL	.	4.a	.	4cc	fahr'
8CJ	.	16dL	.	.	.	.	.
.	.	16eJJ	.	.	.	.	.
8DL	.	8fL	.	.	.	4b	da-
8EJ	.	8eJ	.	8g#	.	.	.
4AA;	.	4c;	.	4e;	.	4a;	-hin
4A	.	4e	.	4a	.	4cc	in
=3	=3	=3	=3	=3	=3	=3	=3
8DL	Got-	8fL	Got-	8aL	.	4b	Got-
8EJ	.	16eL	.	8g#J	.	.	.
.	.	16dJJ	.	.	.	.	.
8FL	-tes	16cLL	-tes	4a	.	4a	-tes
.	.	16BJJ	.	.	.	.	.
8EJ	.	[8A	Wil-	.	.	.	.
8DL	.	8AL]	.	4f	.	2b	Wil-
8BBJ	.	16dL	.	.	.	.	.
.	.	16BJJ	.	.	.	.	.
4E	.	4G#	.	8eL	.	.	.
.	.	.	.	8dJ	.	.	.
=4	=4	=4	=4	=4	=4	=4	=4
2.AA;	.	2.A;	-le,	2.c;	.	2.a;	-le,
8GL	.	4d	.	4g	.	4b	ge-
8FJ	.	.	.	.	.	.	.
=5	=5	=5	=5	=5	=5	=5	=5
8EL	.	4e	.	4g	.	4cc	-trost
8FJ	.	.	.	.	.	.	.
8GL	.	4d	.	4g	.	4b	ist
8FJ	.	.	.	.	.	.	.
8EL	.	4.c	.	4g	.	4cc	mir
8CJ	.	.	.	.	.	.	.
8FL	.	.	.	4f	.	4a	mein
8DJ	.	8d	.	.	.	.	.
=6	=6	=6	=6	=6	=6	=6	=6
8B-L	.	8c#L	.	8eL	.	8gL	Herz
8GJ	.	8dJ	.	8dJ	.	8fJ	.
4A	.	8AL	.	4c#	.	4e	und
.	.	8GJ	.	.	.	.	.
4D;	.	4F;	.	4A;	.	4d;	Sinn,
8C#L	.	(4A	.	8eL	.	[4a	sanft
8BBJ	.	.	.	8dJ	.	.	.
=7	=7	=7	=7	=7	=7	=7	=7
8C#L	.	8G	.	8eL	.	4a]	.
8AAJ	.	4F)	.	8c#J	.	.	.
8BBL	.	.	.	8dL	.	4g	und
8C#J	.	8E	.	8eJ	.	.	.
8DL	.	2F	.	4A	.	8fL	stil-
8Cn	.	.	.	.	.	8eJ	.
8D	.	.	.	4B-	.	4d	.
8EJ	.	.	.	.	.	.	.
=8	=8	=8	=8	=8	=8	=8	=8
2F;	.	2F;	.	2A;	.	2c;	-le.
4C#	.	4A	.	4e	.	4a	Wie
4D	.	4A	.	4d	.	4f	Gott
=9	=9	=9	=9	=9	=9	=9	=9
4E	.	4G	.	(8c	.	4cc	mir
.	.	.	.	4g)	.	.	.
4F	.	8cL	.	.	.	4a	ver-
.	.	8dJ	.	8f	.	.	.
8GL	.	8eL	.	8eL	.	8gL	-hei-
8AJ	.	8fJ	.	8dJ	.	8fJ	.
4B-	.	8eL	.	8c#L	.	4g	-ssen
.	.	8dJ	.	8dJ	.	.	.
=10	=10	=10	=10	=10	=10	=10	=10
4A;	.	4c#;	.	4e;	.	4a;	hat,
4C#	.	4A	.	4e	.	4g	der
4D	.	8AL	.	8dL	.	8fL	Tod
.	.	8GJ	.	8cJ	.	8eJ	.
4GG#	.	4F	.	4B	.	4d	ist
=11	=11	=11	=11	=11	=11	=11	=11
4.AA	mein	4E	mein	8AL	.	4c	mein
.	.	.	.	8BJ	.	.	.
.	.	2.A	Schlaf	8c#L	.	4f	Schlaf
8BB	.	.	.	8dJ	.	.	.
8C#L	Schlaf	.	.	8eL	wor-	8e	wor-
8DJ	.	.	.	8fJ	.	4d	.
4AA	wor-	.	.	[4g	.	.	.
.	.	.	.	.	.	8c#	.
=12	=12	=12	=12	=12	=12	=12	=12
1DD;	-den.	4B-	wor-	4g]	.	1d;	-den.
.	.	8AL	.	8f#L	.	.	.
.	.	8GJ	.	8eJ	.	.	.
.	.	2A;	-den.	2f#;	-den.	.	.
==|!	==|!	==|!	==|!	==|!	==|!	==|!	==|!
*-	*-	*-	*-	*-	*-	*-	*-
!!!RWG: Key is interpreted using the Humdrum key tool.
!!!URL-pdf: https://s9.imslp.org/files/imglnks/usimg/6/6b/IMSLP24489-PMLP09471-CCARH_Bach_Chorales.pdf#page=91 Musedata edition
!!!URL-pdf: https://s9.imslp.org/files/imglnks/usimg/7/7a/IMSLP04155-Bach_-_BGA_253-438.pdf#page=71 	Bach-Gesellschaft Ausgabe, Band 39 (pp.175-276) Leipzig: Breitkopf und Härtel, 1892. Plate B.W. XXXIX.
!!!END: 1994/07/18
!!!EMD: Converted from MuseData to Humdrum Dec 19, 2000, by Andreas Kornstaedt using muse2kern.
!!!EED: Craig Stuart Sapp
!!!EEV: 2024/03/31
!!!ONB: Some non-unicode characters
!!!filter-keyboard: satb2gs
